X:1
T:Title
%%score { 1 | 2 }
L:1/8
M:4/4
K:A
V:1 treble nm="Grand Piano"
V:2 bass 
V:1
 z4 z2[Q:1/4=100] [CE][CA] | [Ec]2 [Ec]2 [Ec]3 [DB] | [DB]2 [CA]4 [EA][EG] | %3
 [DF]2 [FA]2 [FA]3 [DF] |[M:3/4] [CE]6 |[M:1/4] [CE][CE] |[M:4/4] E2 E2 E2 E2 | %7
 [CE]2 [CA]2 [Ec]2 [Ec]2 | [EB]2 [EF]2 [^DB]3 [FA] |[M:3/4] G6 |[M:1/4] EE | %11
[M:4/4] d2 B2 c2 [EA]2 | B2 B4 EE | d2 B2 c2 [EA]2 |[M:3/4] B6 |[M:1/4] EE | %16
[M:4/4] [EA]2 [EA]2 [EB]2 [=Gc]2 | [Fd]2 [Fd]4 [FA][FB] | c A3 B3 G |[M:3/4] [CEA]6 |] %20
V:2
 z4 z2 [A,,A,][A,,A,] | [A,,A,]2 [A,,A,]2 [A,,A,]3 [A,,E,] | [A,,E,]2 [A,,E,]4 [C,A,][C,A,] | %3
 [D,A,]2 [D,A,]2 [D,A,]3 [D,A,] |[M:3/4] [A,,A,]6 |[M:1/4] [A,,A,][A,,A,] | %6
[M:4/4] [E,G,B,]2 [E,A,C]2 [E,B,D]2 [E,G,B,]2 | [A,,A,]2 [A,,E,]2 [A,,A,]2 [A,,A,]2 | %8
 [B,,G,]2 [B,,A,]2 [B,,F,]3 [B,,B,] |[M:3/4] [E,B,E]6 |[M:1/4] [E,G,][E,G,] | %11
[M:4/4] [E,B,E]2 [E,G,E]2 [A,E]2 [C,A,]2 | [E,G,E]2 [E,G,E]4 [E,G,][E,G,] | %13
 [E,B,E]2 [E,G,E]2 [A,E]2 [C,A,]2 |[M:3/4] [E,G,E]6 |[M:1/4] [E,G,][D,B,] | %16
[M:4/4] [C,A,]2 [C,A,]2 [B,,G,]2 [A,,A,]2 | [D,A,]2 [D,A,]4 [D,A,][D,A,] | %18
 [E,A,E] [E,CE]3 [E,DE]3 [E,B,E] |[M:3/4] A,,6 |] %20

